!!!COM: Haydn, Franz Joseph
!!!OTL: String Quartet in D Minor
!!!OPS: Opus 42
!!!OMD: Andante ed innocentemente
!!!OMV: 1
!!!SCT: H III:43
!!!SCA: Thematisch-bibliographisches Werkevererzeichnis (A. van Hoboken)
!!!YOR: Trautwein Edition
!!!ENC: Frances Bennion
!!!CDT: 1732/3/31/-1809/5/31/
!!!CNT: Oesterreich
!!!YEC: Copyright (c) 1994, 2000 Center for Computer Assisted Research in the Humanities
!!!YEM: Rights to all derivative editions reserved.
!!!YEM: Refer to licensing agreement for further details.
!!!YEN: United States of America
**kern	**kern	**kern	**kern
*k[b-]	*k[b-]	*k[b-]	*k[b-]
*d:	*d:	*d:	*d:
*clefF4	*clefC3	*clefG	*clefG
*M2/4	*M2/4	*M2/4	*M2/4
4DD	8d	8A 8f	8.dd
.	8r	8r	.
.	.	.	16a
4r	8d	8f	16ff
.	.	.	16ee
.	8e	8g	16ee
.	.	.	16dd
=2	=2	=2	=2
2r	8f	8a	8dd
.	4.r	4.r	8aa
.	.	.	8aa
.	.	.	8aa
=3	=3	=3	=3
4AA	8e 8c#	8e 8cc#	8.ee
.	8r	8r	.
.	.	.	16a
4r	8c#	8e	16gg
.	.	.	16ff
.	8d	8f	16ff
.	.	.	16ee
=4	=4	=4	=4
2r	8e	8g	8ee
.	4.r	4.r	8bb-
.	.	.	8bb-
.	.	.	8bb-
=5	=5	=5	=5
4F	4D	4d 4dd	[12..aa
.	.	.	96aa]
.	.	.	32gg
.	.	.	32ff
.	.	.	32ee
4r	4r	4r	8dd
.	.	.	8r
=6	=6	=6	=6
4GG	4d	4e	[12..bb-
.	.	.	96bb-]
.	.	.	32aa
.	.	.	32gg
.	.	.	32ff
4r	4r	4r	8ee
.	.	.	8r
=7	=7	=7	=7
8AA	8A	8dd	8ff
8r	8r	16f	16aa
.	.	16r	16r
8A	8A	8e	8cc#
8r	8r	16c#	16ee
.	.	16r	16r
=8	=8	=8	=8
8r	4D	8d	8dd
8DD	.	4.r	4.r
8FF	4r	.	.
8AA	.	.	.
=9	=9	=9	=9
8D	8.d	4.r	2r
8F	.	.	.
.	16A	.	.
8A	16f	.	.
.	16e	.	.
8A	16e	16cc#	.
.	16d	16dd	.
=10	=10	=10	=10
4B-	8d	8dd	8r
.	4.r	4.r	8gg
4r	.	.	8gg
.	.	.	8gg
=11	=11	=11	=11
[2C	8.B-	8.e	2r
.	16A	16c	.
.	8G	16b-	.
.	.	16a	.
.	8F	16a	.
.	.	16g	.
=12	=12	=12	=12
4C]	4E	4g	8r
.	.	.	8ccc
4r	4r	4r	8ccc
.	.	.	8ccc
=13	=13	=13	=13
2FF	16A	2r	[12..ccc
.	16c	.	.
.	16A	.	.
.	.	.	96ccc]
.	.	.	32bb-
.	16c	.	32aa
.	.	.	32gg
.	16A	.	8ff
.	16c	.	.
.	16A	.	8ff
.	16c	.	.
=14	=14	=14	=14
4C	16G	[8b-	8ee
.	16c	.	.
.	16B-	32b-]	16dd
.	.	32a	.
.	16c	32g	16cc
.	.	32f	.
4r	16B-	8e	8cc
.	16c	.	.
.	16B-	8e	8cc
.	16c	.	.
=15	=15	=15	=15
2FF	16A	4f	[12..ccc
.	16c	.	.
.	16A	.	.
.	.	.	96ccc]
.	.	.	32bb-
.	16c	.	32aa
.	.	.	32gg
.	16A	4r	8ff
.	16c	.	.
.	16A	.	8ff
.	16c	.	.
=16	=16	=16	=16
4C	16G	[8b-	8ee
.	16c	.	.
.	16B-	32b-]	16dd
.	.	32a	.
.	16c	32g	16cc
.	.	32f	.
4r	16B-	8e	8cc
.	16c	.	.
.	16B-	8e	8cc
.	16c	.	.
=17	=17	=17	=17
2FF	16A	4f	[12..ccc
.	16c	.	.
.	16A	.	.
.	.	.	96ccc]
.	.	.	32bb-
.	16c	.	32aa
.	.	.	32gg
.	16A	4cc	8ff
.	16c	.	.
.	16A	.	8ee-
.	16c	.	.
=18	=18	=18	=18
8BB-	8B-	8dd	24dd
.	.	.	24ee
.	.	.	24ff#
4.r	4.r	4.r	24gg
.	.	.	24aa
.	.	.	24bb-
.	.	.	24ccc
.	.	.	24ddd
.	.	.	24ccc
.	.	.	24bb-
.	.	.	24aa
.	.	.	24gg
=19	=19	=19	=19
4.C	4.c	4a	4ff
.	.	8g	8ee
8r	8r	16r	16r
.	.	16aa	16ccc
=20	=20	=20	=20
8r	2r	8gg	8bb-
8C	.	16r	16r
.	.	16gg	16bb-
8r	.	8ff	8aa
8C	.	16r	16r
.	.	16ff	16aa
=21	=21	=21	=21
2r	2r	8ee	8gg
.	.	4.r	4.r
=22	=22	=22	=22
2r	[2b-	4dd	2r
.	.	4dd-	.
=23	=23	=23	=23
8.E	2b-_	[2cc	2r
16C	.	.	.
16G	.	.	.
16F	.	.	.
16F	.	.	.
16E	.	.	.
=24	=24	=24	=24
4F	8b-]	4cc]	8.ff
.	8a	.	.
.	.	.	16cc
4r	16f	16a	16aa
.	16g	16b-	16gg
.	16g	16b-	16gg
.	16a	16cc	16ff
=25	=25	=25	=25
8.G	4g	4b-	2ee
16C	.	.	.
16B-	4c	16g	.
16A	.	16a	.
16A	.	16a	.
16G	.	16b-	.
=26	=26	=26	=26
2A	4F	2cc	8.ff
.	.	.	16cc
.	4f	.	16ccc
.	.	.	16bb-
.	.	.	16bb-
.	.	.	16aa
=27	=27	=27	=27
8B-	8f	8f	16aa
.	.	.	16gg
8r	8r	4.r	16gg
.	.	.	16bb-
8c	8f	.	16bb-
.	.	.	16aa
8r	8r	.	16aa
.	.	.	16ccc
=28	=28	=28	=28
8d	8f	8.r	16ccc
.	.	.	16bb-
4r	4r	.	6..r
.	.	16f	.
.	.	16e	.
.	.	16f	.
16r	16r	8f	.
.	.	.	48r
16c	16f	.	16aa
=29	=29	=29	=29
8B-	8f	2r	16aa
.	.	.	16gg
8r	8r	.	16gg
.	.	.	16bb-
8c	8f	.	16bb-
.	.	.	16aa
8r	8r	.	16aa
.	.	.	16ccc
=30	=30	=30	=30
8d	8f	8.r	16ccc
.	.	.	16bb-
4r	4.r	.	6..r
.	.	16f	.
.	.	16e	.
.	.	16f	.
16r	.	8f	.
.	.	.	48r
16c	.	.	16aa
=31	=31	=31	=31
2B	4f	4r	16aa
.	.	.	16gg
.	.	.	16gg
.	.	.	16ddd
.	4d	4f	16ccc
.	.	.	16bb
.	.	.	16aa
.	.	.	16gg
=32	=32	=32	=32
4c	4c	4a	4.ff
4C	4E	4b-	.
.	.	.	8gg
=33	=33	=33	=33
16F	16F	8a	8ff
16A	16c	.	.
16F	16A	16r	16r
8r	8r	16a	16cc
.	.	8f	8a
16A	16c	.	.
8F	8A	16r	16r
.	.	16a	16ff
=34	=34	=34	=34
16r	16r	8g	8ee
16E	16G	.	.
8C	8E	16r	16r
.	.	16g	16b-
16r	16r	8e	8g
16G	16B-	.	.
8E	8G	16r	16r
.	.	16b-	16dd
=35	=35	=35	=35
16F	16A	16r	16r
16r	16r	16a	16cc
16B-	16d	16r	16r
16r	16r	16g	16b-
16c	16c	16r	16r
16r	16r	16f	16a
16C	16c	16r	16r
16r	16r	16e	16g
=36	=36	=36	=36
16F	16A	8f	8a
16F	16A	.	.
16A	16c	16r	16r
8r	8r	16f	16a
.	.	8a	8cc
16A	16c	.	.
8F	8A	16r	16r
.	.	16a	16ff
=37	=37	=37	=37
16r	16r	8g	8ee
16C	16e	.	.
8E	16g	16r	16r
.	8r	16ee	16gg
16r	.	8gg	8bb-
16G	16b-	.	.
8E	8g	16r	16r
.	.	16bb-	16ddd
=38	=38	=38	=38
16F	16a	16r	16r
16r	16r	16aa	16ccc
16B-	16d	16r	16r
16r	16r	16gg	16bb-
16c	16c	16r	16r
16r	16r	16ff	16aa
16C	16B-	16r	16r
16r	16r	16ee	16gg
=39	=39	=39	=39
8F	4B-	4ee	4gg
8C	.	.	.
8FF	8A	8ff	8ff
8r	8r	8r	8r
=40	=40	=40	=40
2r	2r	8.ff	8.aa
.	.	16a	16cc
.	.	16gg	16bb-
.	.	16ff	16aa
.	.	16ff	16aa
.	.	16ee	16gg
=41	=41	=41	=41
8.E	8.g	4ee	4gg
16C	16e	.	.
16G	16b-	4r	4r
16F	16a	.	.
16F	16a	.	.
16E	16g	.	.
=42	=42	=42	=42
4E	4g	8.ee	8.gg
.	.	16a	16a
4C#	4A	16ff	16aa
.	.	16ee	16gg
.	.	16ee	16gg
.	.	16dd	16ff
=43	=43	=43	=43
8DD	8.d	4dd	4ff
16FF	.	.	.
16AA	16A	.	.
8D	16f	4r	4r
.	16e	.	.
8A	16e	.	.
.	16d	.	.
=44	=44	=44	=44
4B-	4d	2r	8.gg
.	.	.	16dd
8r	16dd	.	16bb-
.	16cc	.	16aa
8F#	16cc	.	16aa
.	16b-	.	16gg
=45	=45	=45	=45
4G	4b-	8.ee-	4gg
.	.	16b-	.
8r	4r	16gg	8r
.	.	16ff	.
8G	.	16ff	16bb
.	.	16ee-	16ccc
=46	=46	=46	=46
8.c	8.g	8.ee-	4ccc
16G	16e-	16e-	.
16e-	16g	16cc	4r
16d	16f	16dd	.
16d	16f	16dd	.
16c	16e-	16ee-	.
=47	=47	=47	=47
8c	8.e-	4.ee-	2r
8C	.	.	.
.	16g	.	.
4r	16cc	.	.
.	16b-	.	.
.	16b-	8ee	.
.	16a	.	.
=48	=48	=48	=48
8.F	4a	8.ff	4ff
16C	.	16f	.
16A	16c	16a	16ff
16G	16B-	16b-	16gg
16G	16B-	16b-	16gg
16F	16A	16cc	16aa
=49	=49	=49	=49
8F	4A	8.cc	8.aa
8FF	.	.	.
.	.	16a	16ff
8F	16F	16cc	16aa
.	16G	16b-	16bb-
8F	16G	16b-	16bb-
.	16A	16a	16ccc
=50	=50	=50	=50
2F	2A	8.a	4ccc
.	.	16g#	.
.	.	16a	4ccc#
.	.	16g#	.
.	.	16a	.
.	.	16g#	.
=51	=51	=51	=51
2FF	4A	8.a	4ddd
.	.	16d	.
.	16A	16cc	4ddd#
.	16B	16b	.
.	16B	16b	.
.	16c	16a	.
=52	=52	=52	=52
[2EE	8e	8.g#	4.eee
.	16.B	.	.
.	.	16e	.
.	32g#	.	.
.	16b	16dd	.
.	16a	16cc	.
.	16a	16cc	8ddd#
.	16g#	16b	.
=53	=53	=53	=53
2EE_	8.g#	8.b	4.eee
.	16e	16e	.
.	16b	16dd	.
.	16a	16cc	.
.	16a	16cc	8ddd#
.	16g#	16b	.
=54	=54	=54	=54
8EE]	8g#	8b	8eee
8r	16r	16r	16r
.	16a	16cc	16ddd#
8EE	8g#	8b-	8eee
8r	16r	16r	16r
.	16a	16cc	16ddd#
=55	=55	=55	=55
4EE	8g#	8b	8eee
.	4.r	4.r	4.r
4r	.	.	.
=56	=56	=56	=56
2AA	16c	2r	[12..eee
.	16e	.	.
.	16c	.	.
.	.	.	96eee]
.	.	.	32ddd
.	16e	.	32ccc
.	.	.	32bb
.	16c	.	8aa
.	16e	.	.
.	16c	.	8aa
.	16e	.	.
=57	=57	=57	=57
4E	16d	[8ff	4gg#
.	16e	.	.
.	16d	32ff]	.
.	.	32ee	.
.	16e	32dd	.
.	.	32cc	.
4G#	16d	8b	4r
.	16e	.	.
.	16d	8b	.
.	16e	.	.
=58	=58	=58	=58
2AA	16c	4cc	[12..eee
.	16e	.	.
.	16c	.	.
.	.	.	96eee]
.	.	.	32ddd
.	16e	.	32ccc
.	.	.	32bb
.	16c	4r	8aa
.	16e	.	.
.	16c	.	8aa
.	16e	.	.
=59	=59	=59	=59
4E	[8g	[8bb-	4cc#
.	32g]	32bb-]	.
.	32f	32aa	.
.	32e	32gg	.
.	32d	32ff	.
4r	8c#	8ee	8r
.	8r	16r	8bb-
.	.	16gg	.
=60	=60	=60	=60
16r	16r	8ff	8aa
16d	16f	.	.
8c#	8e	16r	16r
.	.	16gg	16bb-
16r	16r	8ff	8aa
16d	16f	.	.
8c#	8e	16r	16r
.	.	16ff	16gg#
=61	=61	=61	=61
16r	16r	8ee	8aa
16d	16f	.	.
8c#	8e	16r	16r
.	.	16ff	16gg#
16r	16r	8ee	8aa
16d	16f	.	.
8c#	8e	16r	16r
.	.	16dd#	16ff#
=62	=62	=62	=62
16r	16r	8ee	8gg
16B-	16d	.	.
8A	8c#	16r	16r
.	.	16dd#	16ff#
16r	16r	8ee	8gg
16B-	16d	.	.
8A	8c#	16r	16r
.	.	16dd#	16ff#
=63	=63	=63	=63
2r	2r	8ee	8gg
.	.	16r	16r
.	.	16dd#	16ff#
.	.	16ee	16gg
.	.	16dd#	16ff#
.	.	16ee	16gg
.	.	16dd#	16ff#
=64	=64	=64	=64
8r	8.r	8ee	8gg
8B-	.	4.r	4.r
.	16d	.	.
16A	16c#	.	.
16B-	16d	.	.
16A	16c#	.	.
16B-	16d	.	.
=65	=65	=65	=65
8A	8c#	2r	2r
4.r	4.r	.	.
=66	=66	=66	=66
4DD	8d	8f 8A	8.dd
.	8r	8r	.
.	.	.	16a
4r	8d	8f	16ff
.	.	.	16ee
.	8e	8g	16ee
.	.	.	16dd
=67	=67	=67	=67
2r	8f	8a	8dd
.	4.r	4.r	8aa
.	.	.	8aa
.	.	.	8aa
=68	=68	=68	=68
4AA	8e 8c#	8cc# 8e	8.ee
.	8r	8r	.
.	.	.	16a
4r	8c#	8e	16gg
.	.	.	16ff
.	8d	8f	16ff
.	.	.	16ee
=69	=69	=69	=69
2r	8e	8g	8ee
.	4.r	4.r	8bb-
.	.	.	8bb-
.	.	.	8bb-
=70	=70	=70	=70
2D	16A	2r	[12..aa
.	16f	.	.
.	16A	.	.
.	.	.	96aa]
.	.	.	32gg
.	16f	.	32ff
.	.	.	32ee
.	16A	.	8dd
.	16f	.	.
.	16A	.	8dd
.	16f	.	.
=71	=71	=71	=71
4A	16A	[8g	8cc#
.	16e	.	.
.	16A	32g]	16b-
.	.	32f	.
.	16e	32e	16a
.	.	32d	.
4r	16A	8c#	8a
.	16g	.	.
.	16A	8c#	8a
.	16g	.	.
=72	=72	=72	=72
2DD	16A	4d	[12..aa
.	16f	.	.
.	16A	.	.
.	.	.	96aa]
.	.	.	32gg
.	16f	.	32ff
.	.	.	32ee
.	16A	4r	8dd
.	16f	.	.
.	16A	.	8dd
.	16f	.	.
=73	=73	=73	=73
4AA	16A	[8g	8cc#
.	16e	.	.
.	16A	32g]	16b-
.	.	32f	.
.	16e	32e	16a
.	.	32d	.
4r	16A	8c#	8a
.	16g	.	.
.	16A	8c#	8a
.	16g	.	.
=74	=74	=74	=74
2F	4f	2d	[12..aa
.	.	.	96aa]
.	.	.	32gg
.	.	.	32ff
.	.	.	32ee
.	4a	.	8dd
.	.	.	8ddd
=75	=75	=75	=75
4.G	8g	8d	16ccc
.	.	.	16bb-
.	4r	8e	16aa
.	.	.	16gg
.	.	8f	16ff
.	.	.	16ee
8G#	8B	16d	16ff
.	.	16f	16dd
=76	=76	=76	=76
4A	4A	4f	4dd
8AA	4r	8e	8cc#
8r	.	16r	16r
.	.	16ff	16aa
=77	=77	=77	=77
8r	2r	8ee	8gg
8AA	.	16r	16r
.	.	16ee	16gg
8r	.	8dd	8ff
8AA	.	16r	16r
.	.	16dd	16ff
=78	=78	=78	=78
2r	2r	8cc#	8ee
.	.	4.r	4.r
=79	=79	=79	=79
4r	4r	4f	4dd
4A	4e-	4f#	4cc
=80	=80	=80	=80
2B-	2d	2g	8.b-
.	.	.	16g
.	.	.	16gg
.	.	.	16ff
.	.	.	16ee
.	.	.	16dd
=81	=81	=81	=81
[2A	8.e	8.g	4.cc#
.	16c#	16e	.
.	16g	16b-	.
.	16f	16a	.
.	16e	16g	8dd
.	16d	16f	.
=82	=82	=82	=82
4A]	4c#	4e	8.ee
.	.	.	16a
4r	4r	4r	16aa
.	.	.	16gg
.	.	.	16ff
.	.	.	16ee
=83	=83	=83	=83
2r	8f	8a	16ee
.	.	.	16dd
.	8r	8r	16dd
.	.	.	16ff
.	8g	8b-	16ff
.	.	.	16ee
.	8r	8r	16ee
.	.	.	16gg
=84	=84	=84	=84
8.r	8a	8cc	16gg
.	.	.	16ff#
.	4.r	4.r	6..r
16E-	.	.	.
16E-	.	.	.
16D	.	.	.
8D	.	.	.
.	.	.	48r
.	.	.	16gg
=85	=85	=85	=85
2r	8a	8cc	16gg
.	.	.	16ff#
.	8r	8r	16ff#
.	.	.	16aa
.	8b-	8dd	16aa
.	.	.	16gg
.	8r	8r	16gg
.	.	.	16bb-
=86	=86	=86	=86
8.r	8f#	8dd	16bb-
.	.	.	16aa
.	4.r	4.r	6..r
16E-	.	.	.
16E-	.	.	.
16D	.	.	.
8D	.	.	.
.	.	.	48r
.	.	.	16bb-
=87	=87	=87	=87
2r	4f#	4.dd	16bb-
.	.	.	16aa
.	.	.	16aa
.	.	.	16ccc
.	8g	.	16ccc
.	.	.	16bb-
.	8cc	8dd	16bb-
.	.	.	16aa
=88	=88	=88	=88
8.r	8b-	8dd	16aa
.	.	.	16gg
.	16r	4.r	16r
16c	16e-	.	16aa
16c	16e-	.	16aa
16B-	16d	.	16gg
16B-	16d	.	16gg
16A	16c	.	16ff#
=89	=89	=89	=89
16A	16c	2r	16ff#
16B-	16d	.	16gg
16B-	16d	.	16gg
16A	16c	.	16ff
8G	8B-	.	16ff
.	.	.	16ee
8G#	8f	.	16ee
.	.	.	16dd
=90	=90	=90	=90
[2AA	8.e	8.cc#	8.aa
.	16f	16dd	16bb-
.	16f	16dd	16bb-
.	16e	16cc#	16aa
.	16e	16cc#	16aa
.	16d	16ff	16gg#
=91	=91	=91	=91
2AA_	16d	16ff	16gg#
.	16c#	16ee	16aa
.	16c#	16ee	16aa
.	16f	16dd	16bb-
.	16f	16dd	16bb-
.	16e	16cc#	16aa
.	16e	16cc#	16aa
.	16d	16ff	16gg#
=92	=92	=92	=92
2AA_	16d	16ff	16gg#
.	16c#	16ee	16aa
.	16c#	16ee	16aa
.	16f	16dd	16bb-
.	16f	16dd	16bb-
.	16e	16cc	16aa
.	16e	16cc	16aa
.	16d	16b	16gg#
=93	=93	=93	=93
2AA]	4d	4b	4gg#
.	4c#	8b-	4gg
.	.	8a	.
=94	=94	=94	=94
2BB-	4d	2g#	4ff
.	8e	.	8ee
.	8f	.	8dd
=95	=95	=95	=95
2AA	16f	16a	[6..dd
.	32e	32g	.
.	32f	32a	.
.	16g	16b-	.
.	16f	16a	.
.	4e	4g	.
.	.	.	48dd]
.	.	.	32cc#
.	.	.	32dd
.	.	.	16ee
.	.	.	16cc#
=96	=96	=96	=96
16r	16r	8f	8dd
16F	16a	.	.
8D	8f	16r	16r
.	.	16ff	16aa
16r	16r	8dd	8ff
16F	16a	.	.
8D	8f	16r	16r
.	.	16ff	16ddd
=97	=97	=97	=97
16r	16r	8ee	8ccc#
16c#	16e	.	.
8A	8c#	16r	16r
.	.	16ee	16gg
16r	16r	8cc#	8ee
16C#	16e	.	.
8AA	8c#	16r	16r
.	.	16gg	16bb-
=98	=98	=98	=98
8D	8f	16r	16r
.	.	16ff	16aa
8G	8b-	16r	16r
.	.	16ee	16gg
8A	8a	16r	16r
.	.	16dd	16ff
8AA	8g	16r	16r
.	.	16cc#	16ee
=99	=99	=99	=99
16r	16r	8dd	8dd
16D	16f	.	.
8F	8a	16r	16r
.	.	16dd	16ff
16r	16r	8ff	8aa
16F	16a	.	.
8D	8f	16r	16r
.	.	16ff	16ddd
=100	=100	=100	=100
16r	16r	8ee	8ccc#
16A	16cc#	.	.
8c#	8ee	16r	16r
.	.	16cc#	16ee
16r	16r	8ee	8gg
16C#	16e	.	.
8AA	8c#	16r	16r
.	.	16gg	16bb-
=101	=101	=101	=101
8D	8f	16r	16r
.	.	16ff	16aa
8G	8b-	16r	16r
.	.	16ee	16gg
8A	8a	16r	16r
.	.	16dd	16ff
8AA	8g	16r	16r
.	.	16cc#	16ee
=102	=102	=102	=102
8D	16f	16dd	4dd
.	16d	16f	.
16r	8f	8a	.
16D	.	.	.
8DD	16r	16r	4cc
.	16f#	16a	.
16r	8a	8cc	.
16D	.	.	.
=103	=103	=103	=103
8DD	16r	16r	4b-
.	16B-	16g	.
16r	8g	8b-	.
16D	.	.	.
8DD	16r	16r	4g
.	16G	16G	.
16r	8B-	8c#	.
16D	.	.	.
=104	=104	=104	=104
8DD	8A	8d	8f#
8r	8r	8r	8r
8DD	8A	8d	8f#
16r	16r	16r	16r
16DD	16A	16d	16f#
=105	=105	=105	=105
8DD	8A	8d	8f#
4.r	4.r	4.r	4.r
==	==	==	==
*-	*-	*-	*-
!!!RWG1: This file contains only pitch and duration data.
!!!RWG2: Transposing instruments are not transposed.
!!!RWG3: Spines may have incompatible meters.
!!!RWG4: Durations of rests and tied notes may be interpreted.
!!!RWG: Key is interpreted using the Humdrum key tool.
!!!AFT: stage1
!!!END: 1997/04/15
!!!KEY: 1702481439
!!!EMD: Converted from MuseData to Humdrum Dec 16, 2000, by Andreas Kornstaedt using muse2kern.
!!!EMD: Manual editing by Craig Sapp, Nov 2001
